assets/icons/verseau.svg

<svg width="298" height="471" viewBox="0 0 298 471" fill="none" xmlns="http://www.w3.org/2000/svg">
<g clip-path="url(#clip0_149_770)">
<path d="M212.287 384.911C221.879 378.419 224.215 379.327 234.729 383.261C240.666 391.729 243.81 398.405 236.234 407.364C230.25 414.76 220.018 414.984 213.223 408.443C209.844 405.225 207.942 400.755 207.967 396.089C208.04 391.313 209.383 388.492 212.287 384.911Z" fill="#F1F1F1"/>
<path d="M141.571 235.59C150.202 233.243 159.118 238.264 161.586 246.861C164.054 255.458 159.158 264.443 150.596 267.031C144.95 268.737 138.823 267.272 134.56 263.196C130.297 259.119 128.559 253.064 130.011 247.347C131.463 241.631 135.88 237.138 141.571 235.59Z" fill="#F1F1F1"/>
<path d="M45.7052 186.308C63.8432 183.592 73.4121 211.08 49.8871 218.614C41.9811 219.328 34.4592 215.514 32.0552 207.615C30.7532 203.214 31.2632 198.475 33.4712 194.452C36.6142 188.815 39.8372 187.94 45.7052 186.308Z" fill="#F1F1F1"/>
<path d="M96.5772 438.679C104.967 435.338 114.474 439.449 117.787 447.851C121.099 456.252 116.955 465.745 108.543 469.029C100.171 472.297 90.7332 468.177 87.4362 459.816C84.1402 451.456 88.2272 442.004 96.5772 438.679Z" fill="#F1F1F1"/>
<path d="M15.379 321.147C20.43 322.598 29.3551 337.751 32.8671 342.925L60.8931 384.303L83.8341 418.269C86.9771 422.943 90.3851 427.938 93.4241 432.687C95.1691 435.414 94.1971 436.101 93.1461 438.964C90.2241 438.236 89.66 437.644 87.863 435.011C70.207 409.139 52.833 383.322 35.267 357.369C29.03 348.155 21.1971 336.986 15.2031 327.427C14.4651 326.249 15.122 322.684 15.379 321.147Z" fill="#F1F1F1"/>
<path d="M275.409 15.7705C277.855 16.483 276.952 16.0772 278.962 17.8496L278.97 19.9715C272.676 28.3466 187.832 90.383 173.671 101.144C171.619 99.797 172.243 100.249 170.632 98.296C170.766 97.537 170.9 96.779 171.034 96.021C199.303 71.687 248.793 39.045 275.409 15.7705Z" fill="#F1F1F1"/>
<path d="M143.656 117.722C146.881 117.793 145.634 117.188 147.703 119.161C147.121 121.881 146.615 122.92 144.327 124.76C118.184 145.791 89.3891 166.755 63.8471 188.357C60.8771 189.07 62.2761 189.145 59.4941 188.346L58.9961 186.508C61.2141 180.556 132.29 126.532 143.656 117.722Z" fill="#F1F1F1"/>
<path d="M116.37 374.719C120.777 372.911 125.817 373.625 129.548 376.587C133.278 379.55 135.116 384.297 134.353 388.999C133.59 393.701 130.345 397.622 125.869 399.252C119.138 401.704 111.683 398.321 109.096 391.64C106.51 384.96 109.743 377.439 116.37 374.719Z" fill="#F1F1F1"/>
<path d="M154.012 96.5658C160.765 93.8798 168.413 97.2048 171.053 103.975C173.694 110.746 170.317 118.371 163.529 120.966C156.806 123.536 149.268 120.198 146.653 113.492C144.037 106.787 147.324 99.2268 154.012 96.5658Z" fill="#F1F1F1"/>
<path d="M9.42913 261.585C16.0721 259.551 23.1451 263.067 25.5341 269.591C27.9231 276.114 24.7941 283.366 18.4101 286.104C13.9611 288.012 8.82313 287.306 5.05413 284.27C1.28513 281.234 -0.498898 276.364 0.417102 271.611C1.3341 266.859 4.80113 263.001 9.42913 261.585Z" fill="#F1F1F1"/>
<path d="M63.9171 207.698C72.9101 208.377 114.943 235.364 125.359 241.384C128.44 243.164 128.222 244.955 128.691 247.838C120.668 247.333 75.7931 219.198 65.9421 213.012C63.6081 211.546 64.1691 210.413 63.9171 207.698Z" fill="#F1F1F1"/>
<path d="M217.538 234.944C220.158 235.213 219.971 235.256 222.091 236.877L220.856 239.158C214.917 242.868 176.423 250.14 167.474 251.726C165.348 251.454 166.362 251.674 164.341 249.907L164.49 247.955C168.605 243.917 207.159 237.838 216.513 235.237L217.538 234.944Z" fill="#F1F1F1"/>
<path d="M283.973 0.669151C287.301 -0.627849 291.072 -0.0117483 293.814 2.27725C296.556 4.56635 297.835 8.16575 297.153 11.672C296.472 15.1782 293.937 18.0361 290.537 19.1309C285.493 20.755 280.072 18.0769 278.297 13.0846C276.523 8.09226 279.037 2.59315 283.973 0.669151Z" fill="#2269F5"/>
<path d="M231.935 225.565C237.083 224.517 242.139 227.726 243.382 232.831C244.625 237.935 241.611 243.11 236.557 244.546C233.112 245.525 229.408 244.542 226.902 241.984C224.396 239.426 223.49 235.702 224.539 232.279C225.589 228.855 228.426 226.279 231.935 225.565Z" fill="#F1F1F1"/>
<path d="M259.696 428.048C262.28 423.568 267.925 421.904 272.526 424.265C277.128 426.627 279.066 432.184 276.933 436.895C275.456 440.155 272.305 442.337 268.735 442.572C265.164 442.807 261.754 441.056 259.863 438.018C257.973 434.98 257.908 431.148 259.696 428.048Z" fill="#F1F1F1"/>
<path d="M182.545 365.442C187.283 362.871 193.208 364.657 195.735 369.419C198.263 374.181 196.422 380.089 191.637 382.573C186.914 385.024 181.098 383.212 178.604 378.512C176.109 373.812 177.868 367.979 182.545 365.442Z" fill="#F1F1F1"/>
<path d="M44.6651 257.994C59.5201 259.011 61.4901 270.219 50.0811 277.819C36.8321 276.105 32.8481 265.502 44.6651 257.994Z" fill="#F1F1F1"/>
<path d="M7.61211 303.274C11.5711 303.73 15.5961 304.794 17.9661 308.25C19.4891 310.434 19.9651 313.182 19.2661 315.752C18.2021 319.633 15.5221 321.406 12.2501 323.249C-1.94588 321.366 -4.21789 310.405 7.61211 303.274Z" fill="#F1F1F1"/>
<path d="M170.186 371.285C172.859 371.02 173.657 371.352 175.101 373.441L174.3 375.239C168.974 378.94 147.62 380.161 140.232 380.897C136.747 381.021 138.223 381.551 135.623 379.347L135.531 377.3C139.898 373.823 163.482 372.033 170.186 371.285Z" fill="#F1F1F1"/>
<path d="M114.686 401.114C116.244 401.587 118.712 401.901 118.889 403.071C120.01 410.454 114.33 431.259 112.244 437.736C110.228 437.128 110.469 437.147 108.598 436.129C106.384 430.431 112.863 408.573 114.686 401.114Z" fill="#F1F1F1"/>
<path d="M42.9712 219.914C44.8492 220.371 44.9382 220.51 46.7162 221.315C48.9182 226.04 50.0002 250.245 49.1792 256.167C47.3692 255.786 45.6322 255.876 45.0912 254.686C42.2132 248.353 41.6712 225.134 42.9712 219.914Z" fill="#F1F1F1"/>
<path d="M236.234 407.363C243.131 407.911 259.387 420.613 259.696 428.047C252.781 428.26 237.416 414.991 236.234 407.363Z" fill="#F1F1F1"/>
<path d="M196.992 377.449C204.432 378.108 208.117 381.016 208.78 388.493C202.15 387.763 197.46 384.29 196.992 377.449Z" fill="#F1F1F1"/>
<path d="M9.69404 288.361C13.353 288.983 11.895 288.183 14.415 290.432C15.297 294.192 13.1551 297.929 11.6511 301.681C9.33307 301.303 10.1851 301.54 8.09907 300.249C6.61607 296.077 8.17904 292.439 9.69404 288.361Z" fill="#F1F1F1"/>
</g>
<defs>
<clipPath id="clip0_149_770">
<rect width="298" height="471" fill="white"/>
</clipPath>
</defs>
</svg>

<svg xmlns="http://www.w3.org/2000/svg" width="298" height="471" fill="none" viewBox="0 0 298 471"><g clip-path="url(#a)"><path fill="#f1f1f1" d="M212.287 384.911c9.592-6.492 11.928-5.584 22.442-1.65 5.937 8.468 9.081 15.144 1.505 24.103-5.984 7.396-16.216 7.62-23.011 1.079a16.94 16.94 0 0 1-5.256-12.354c.073-4.776 1.416-7.597 4.32-11.178M141.571 235.59c8.631-2.347 17.547 2.674 20.015 11.271s-2.428 17.582-10.99 20.17a16.358 16.358 0 1 1-9.025-31.441M45.705 186.308c18.138-2.716 27.707 24.772 4.182 32.306-7.906.714-15.428-3.1-17.832-10.999a17.2 17.2 0 0 1 1.416-13.163c3.143-5.637 6.366-6.512 12.234-8.144M96.577 438.679c8.39-3.341 17.897.77 21.21 9.172 3.312 8.401-.832 17.894-9.244 21.178-8.372 3.268-17.81-.852-21.107-9.213-3.296-8.36.791-17.812 9.141-21.137M15.379 321.147c5.051 1.451 13.976 16.604 17.488 21.778l28.026 41.378 22.941 33.966c3.143 4.674 6.551 9.669 9.59 14.418 1.745 2.727.773 3.414-.278 6.277-2.922-.728-3.486-1.32-5.283-3.953-17.656-25.872-35.03-51.689-52.596-77.642-6.237-9.214-14.07-20.383-20.064-29.942-.738-1.178-.081-4.743.176-6.28M275.409 15.77c2.446.713 1.543.307 3.553 2.08l.008 2.121c-6.294 8.376-91.138 70.412-105.299 81.173-2.052-1.347-1.428-.895-3.039-2.848l.402-2.275c28.269-24.334 77.759-56.976 104.375-80.25M143.656 117.722c3.225.071 1.978-.534 4.047 1.439-.582 2.72-1.088 3.759-3.376 5.599-26.143 21.031-54.938 41.995-80.48 63.597-2.97.713-1.57.788-4.353-.011l-.498-1.838c2.218-5.952 73.294-59.976 84.66-68.786M116.37 374.719a13.16 13.16 0 0 1 13.178 1.868 13.16 13.16 0 0 1 4.805 12.412 13.15 13.15 0 0 1-8.484 10.253c-6.731 2.452-14.186-.931-16.773-7.612-2.586-6.68.647-14.201 7.274-16.921M154.012 96.566c6.753-2.686 14.401.639 17.041 7.409 2.641 6.771-.736 14.396-7.524 16.991-6.723 2.57-14.261-.768-16.876-7.474-2.616-6.705.671-14.265 7.359-16.926M9.43 261.585c6.642-2.034 13.715 1.482 16.104 8.006 2.39 6.523-.74 13.775-7.124 16.513a13.075 13.075 0 1 1-8.98-24.519"/><path fill="#f1f1f1" d="M63.917 207.698c8.993.679 51.026 27.666 61.442 33.686 3.081 1.78 2.863 3.571 3.332 6.454-8.023-.505-52.898-28.64-62.749-34.826-2.334-1.466-1.773-2.599-2.025-5.314M217.538 234.944c2.62.269 2.433.312 4.553 1.933l-1.235 2.281c-5.939 3.71-44.433 10.982-53.382 12.568-2.126-.272-1.112-.052-3.133-1.819l.149-1.952c4.115-4.038 42.669-10.117 52.023-12.718z"/><path fill="#2269f5" d="M283.973.67a9.803 9.803 0 0 1 13.18 11.002A9.802 9.802 0 1 1 283.973.669"/><path fill="#f1f1f1" d="M231.935 225.565a9.775 9.775 0 0 1 11.447 7.266 9.775 9.775 0 1 1-11.447-7.266M259.696 428.048a9.7 9.7 0 1 1 16.804 9.693 9.7 9.7 0 0 1-16.804-9.693M182.545 365.442c4.738-2.571 10.663-.785 13.19 3.977 2.528 4.762.687 10.67-4.098 13.154-4.723 2.451-10.539.639-13.033-4.061a9.697 9.697 0 0 1 3.941-13.07M44.665 257.994c14.855 1.017 16.825 12.225 5.416 19.825-13.249-1.714-17.233-12.317-5.416-19.825M7.612 303.274c3.96.456 7.984 1.52 10.354 4.976a8.99 8.99 0 0 1 1.3 7.502c-1.064 3.881-3.744 5.654-7.016 7.497-14.196-1.883-16.468-12.844-4.638-19.975M170.186 371.285c2.673-.265 3.471.067 4.915 2.156l-.801 1.798c-5.326 3.701-26.68 4.922-34.068 5.658-3.485.124-2.009.654-4.609-1.55l-.092-2.047c4.367-3.477 27.951-5.267 34.655-6.015M114.686 401.114c1.558.473 4.026.787 4.203 1.957 1.121 7.383-4.559 28.188-6.645 34.665-2.016-.608-1.775-.589-3.646-1.607-2.214-5.698 4.265-27.556 6.088-35.015M42.971 219.914c1.878.457 1.967.596 3.745 1.401 2.202 4.725 3.284 28.93 2.463 34.852-1.81-.381-3.547-.291-4.088-1.481-2.878-6.333-3.42-29.552-2.12-34.772M236.234 407.363c6.897.548 23.153 13.25 23.462 20.684-6.915.213-22.28-13.056-23.462-20.684"/><path fill="#f1f1f1" d="M196.992 377.449c7.44.659 11.125 3.567 11.788 11.044-6.63-.73-11.32-4.203-11.788-11.044M9.694 288.361c3.659.622 2.201-.178 4.721 2.071.882 3.76-1.26 7.497-2.764 11.249-2.318-.378-1.466-.141-3.552-1.432-1.483-4.172.08-7.81 1.595-11.888"/></g><defs><clipPath id="a"><path fill="#fff" d="M0 0h298v471H0z"/></clipPath></defs></svg>
